X: 510
T: The Campbells are coming
%R: jig
B: "Preston's Twenty Four Country Dances for the Year 1803", Tho. Preston, ed. p.215 #2
F: http://folkopedia.efdss.org/images/archive/0/02/20121211105513%21Preston_24_1803.PDF
F: http://folkopedia.efdss.org/wiki/File:Preston_24_1803.PDF
Z: 2014 John Chambers <jc:trillian.mit.edu>
M: 6/8
L: 1/8
K: G
% - - - - - - - - - - - - - - - - - - - - - - - - -
G |:\
B2e dBG | ABA A2G | B2g dBG | BcB B2A |\
B2e dBG | A>BA gab | geg dBG | BcB B2A :|
|:\
g2g g>ab | d>ed dBG | g2g gab | geg e2d |\
def gfe | dBd gab | geg dBG | BcB B2A :|
% - - - - - - - - - - - - - - - - - - - - - - - - -
%%begintext align
%% Hands 3 round on the Lady's side then
%% on the Gent.s lead down the middle, up
%% again, right & left at top.
%%endtext

%%sep 1 1 500
%%sep 1 1 500
